polaris-icons/icons/new-icons/LogoBlockMajor.svg

<svg width="20" height="20" viewBox="0 0 20 20" fill="none" xmlns="http://www.w3.org/2000/svg">
<path d="M3.5 6.25C3.5 4.73122 4.73122 3.5 6.25 3.5C6.66421 3.5 7 3.83579 7 4.25C7 4.66421 6.66421 5 6.25 5C5.55964 5 5 5.55964 5 6.25C5 6.66421 4.66421 7 4.25 7C3.83579 7 3.5 6.66421 3.5 6.25Z" fill="#4A4A4A"/>
<path d="M6.25 16.5C4.73122 16.5 3.5 15.2688 3.5 13.75C3.5 13.3358 3.83579 13 4.25 13C4.66421 13 5 13.3358 5 13.75C5 14.4404 5.55964 15 6.25 15C6.66421 15 7 15.3358 7 15.75C7 16.1642 6.66421 16.5 6.25 16.5Z" fill="#4A4A4A"/>
<path d="M16.5 6.25C16.5 4.73122 15.2688 3.5 13.75 3.5C13.3358 3.5 13 3.83579 13 4.25C13 4.66421 13.3358 5 13.75 5C14.4404 5 15 5.55964 15 6.25C15 6.66421 15.3358 7 15.75 7C16.1642 7 16.5 6.66421 16.5 6.25Z" fill="#4A4A4A"/>
<path d="M16.5 13.75C16.5 15.2688 15.2688 16.5 13.75 16.5C13.3358 16.5 13 16.1642 13 15.75C13 15.3358 13.3358 15 13.75 15C14.4404 15 15 14.4404 15 13.75C15 13.3358 15.3358 13 15.75 13C16.1642 13 16.5 13.3358 16.5 13.75Z" fill="#4A4A4A"/>
<path d="M5 9C5 8.58579 4.66421 8.25 4.25 8.25C3.83579 8.25 3.5 8.58579 3.5 9V11C3.5 11.4142 3.83579 11.75 4.25 11.75C4.66421 11.75 5 11.4142 5 11V9Z" fill="#4A4A4A"/>
<path d="M15.75 8.25C16.1642 8.25 16.5 8.58579 16.5 9V11C16.5 11.4142 16.1642 11.75 15.75 11.75C15.3358 11.75 15 11.4142 15 11V9C15 8.58579 15.3358 8.25 15.75 8.25Z" fill="#4A4A4A"/>
<path d="M11 5C11.4142 5 11.75 4.66421 11.75 4.25C11.75 3.83579 11.4142 3.5 11 3.5H9C8.58579 3.5 8.25 3.83579 8.25 4.25C8.25 4.66421 8.58579 5 9 5L11 5Z" fill="#4A4A4A"/>
<path d="M11.75 15.75C11.75 16.1642 11.4142 16.5 11 16.5H9C8.58579 16.5 8.25 16.1642 8.25 15.75C8.25 15.3358 8.58579 15 9 15H11C11.4142 15 11.75 15.3358 11.75 15.75Z" fill="#4A4A4A"/>
<path fill-rule="evenodd" clip-rule="evenodd" d="M6 9C6 7.34315 7.34315 6 9 6H11C12.6569 6 14 7.34315 14 9V11C14 12.6569 12.6569 14 11 14H9C7.34315 14 6 12.6569 6 11V9ZM9 7.5H11C11.8284 7.5 12.5 8.17157 12.5 9V11C12.5 11.8284 11.8284 12.5 11 12.5H9C8.17157 12.5 7.5 11.8284 7.5 11V9C7.5 8.17157 8.17157 7.5 9 7.5Z" fill="#4A4A4A"/>
</svg>

<svg viewBox="0 0 20 20" xmlns="http://www.w3.org/2000/svg"><path d="M3.5 6.25a2.75 2.75 0 0 1 2.75-2.75.75.75 0 0 1 0 1.5c-.69 0-1.25.56-1.25 1.25a.75.75 0 0 1-1.5 0Z" fill="#5C5F62"/><path d="M6.25 16.5a2.75 2.75 0 0 1-2.75-2.75.75.75 0 0 1 1.5 0c0 .69.56 1.25 1.25 1.25a.75.75 0 0 1 0 1.5Z" fill="#5C5F62"/><path d="M16.5 6.25a2.75 2.75 0 0 0-2.75-2.75.75.75 0 0 0 0 1.5c.69 0 1.25.56 1.25 1.25a.75.75 0 0 0 1.5 0Z" fill="#5C5F62"/><path d="M16.5 13.75a2.75 2.75 0 0 1-2.75 2.75.75.75 0 0 1 0-1.5c.69 0 1.25-.56 1.25-1.25a.75.75 0 0 1 1.5 0Z" fill="#5C5F62"/><path d="M5 9a.75.75 0 0 0-1.5 0v2a.75.75 0 0 0 1.5 0v-2Z" fill="#5C5F62"/><path d="M15.75 8.25a.75.75 0 0 1 .75.75v2a.75.75 0 0 1-1.5 0v-2a.75.75 0 0 1 .75-.75Z" fill="#5C5F62"/><path d="M11 5a.75.75 0 0 0 0-1.5h-2a.75.75 0 0 0 0 1.5h2Z" fill="#5C5F62"/><path d="M11.75 15.75a.75.75 0 0 1-.75.75h-2a.75.75 0 0 1 0-1.5h2a.75.75 0 0 1 .75.75Z" fill="#5C5F62"/><path fill-rule="evenodd" d="M6 9a3 3 0 0 1 3-3h2a3 3 0 0 1 3 3v2a3 3 0 0 1-3 3h-2a3 3 0 0 1-3-3v-2Zm3-1.5h2a1.5 1.5 0 0 1 1.5 1.5v2a1.5 1.5 0 0 1-1.5 1.5h-2a1.5 1.5 0 0 1-1.5-1.5v-2a1.5 1.5 0 0 1 1.5-1.5Z" fill="#5C5F62"/></svg>
